static/images/home/capabilities/capabilities-05.svg

<?xml version="1.0" encoding="UTF-8"?>
<svg width="170px" height="126px" viewBox="0 0 170 126" version="1.1" xmlns="http://www.w3.org/2000/svg" xmlns:xlink="http://www.w3.org/1999/xlink">
    <title>capabilities-05</title>
    <defs>
        <polygon id="path-1" points="141.746515 51.8149259 82.6756232 51.8149259 82.6756232 37.0524383 141.746515 37.0524383"></polygon>
        <mask id="mask-2" maskContentUnits="userSpaceOnUse" maskUnits="objectBoundingBox" x="0" y="0" width="59.0708922" height="14.7624876" fill="white">
            <use xlink:href="#path-1"></use>
        </mask>
    </defs>
    <g id="capabilities-05" stroke="none" stroke-width="1" fill="none" fill-rule="evenodd">
        <g id="Group" transform="translate(81.498481, 56.668359) scale(1, -1) translate(-81.498481, -56.668359) translate(1.998481, 9.668359)">
            <polygon id="path12" fill="#B5CEE0" fill-rule="nonzero" points="148.551854 66.5774134 112.211275 66.5774134 112.211275 51.8149259 148.551854 51.8149259"></polygon>
            <polygon id="path14" fill="#809EBE" fill-rule="nonzero" points="112.211275 66.5774134 61.2112746 66.5774134 61.2112746 51.8149259 112.211275 51.8149259"></polygon>
            <polygon id="path18" fill="#FFFFFF" fill-rule="nonzero" points="158.992892 51.8149259 141.746515 51.8149259 141.746515 37.0524383 158.992892 37.0524383"></polygon>
            <use id="path20" stroke="#14BA5A" mask="url(#mask-2)" stroke-width="2.6666666" stroke-dasharray="3,2" xlink:href="#path-1"></use>
            <polygon id="path22" fill="#FFFFFF" fill-rule="nonzero" points="82.6756232 51.8149259 46.3765192 51.8149259 42.0926045 48.0104727 53.1403824 37.0861098 82.6756232 37.0524383"></polygon>
            <polygon id="path24" fill="#809EBE" fill-rule="nonzero" points="148.551854 37.0861098 112.211275 37.0861098 112.211275 22.3236223 148.551854 22.3236223"></polygon>
            <polygon id="path26" fill="#B5CEE0" fill-rule="nonzero" points="112.211275 37.0861098 53.1403824 37.0861098 67.9015192 22.3236223 112.211275 22.3236223"></polygon>
            <polygon id="path30" fill="#FFFFFF" fill-rule="nonzero" points="127.761759 22.3236223 67.9015192 22.3236223 82.7015192 7.5611347 127.761759 7.5611347"></polygon>
            <path d="M87.9745312,0.461047923 L87.9657991,0.469047923 L87.9745312,0.469096232 L83.4337991,5.20204792 L83.4344637,39.2242499 L83.3727991,39.2240479 L83.474541,39.325716 L78.8367991,43.9620479 L89.2647991,54.4060479 L116.338702,27.3335714 L122.735876,33.7303345 L90.0244273,66.441783 L89.9787991,66.3960479 L78.9378817,77.4299421 L78.9388486,77.4186895 L74.4785437,81.8729783 L50.0798486,57.4389692 L50.0887991,57.4300479 L0.621799134,7.96350909 L8.18979913,0.489047923 L8.18339073,0.482646956 L8.19679913,0.482047923 L8.20158155,0.478581739 L8.20479913,0.482047923 L18.3111199,0.469096232 L13.3557991,5.63304792 L57.6257991,49.9030479 L71.2169254,36.3326895 L71.3097991,36.4250479 L72.7817991,34.9530479 L72.7823625,0.465072077 L83.4344637,0.465072077 L83.4337991,0.467047923 L87.9745312,0.461047923 Z" id="Combined-Shape" fill="#006BB8" fill-rule="nonzero"></path>
            <path d="M90.4764056,86.1589492 L87.7794008,83.4549637 L89.3787969,81.8596739 L85.7370192,78.2090267 L95.8943137,68.0767805 L100.094628,72.2877708 L100.213442,72.4057805 L101.715253,70.9092925 L102.886442,75.0857805 L106.831801,79.0413696 L96.6745069,89.1732051 L92.0758017,84.5632487 L90.4764056,86.1589492 Z M87.8986883,68.4415003 L91.7043886,72.2566452 L85.7371424,78.2091088 L81.931442,74.3939639 L87.8986883,68.4415003 Z" id="Combined-Shape" fill="#3389C6" fill-rule="nonzero"></path>
            <polygon id="path72" fill="#F2F7FB" fill-rule="nonzero" points="105.760226 77.9122247 95.6033427 88.0444709 99.9465551 92.3983596 110.103439 82.2661135"></polygon>
            <polygon id="path96" fill="#F2F7FB" fill-rule="nonzero" points="105.697688 77.882331 111.607035 80.7698672 108.570852 83.7970169"></polygon>
            <polygon id="path100" fill="#F2F7FB" fill-rule="nonzero" points="95.6019876 88.0431568 101.510925 90.930693 98.4751518 93.9578427"></polygon>
            <path d="M72.8092152,43.0482256 L79.206389,49.4453993 L64.7515684,63.8992256 L78.5888068,77.7366813 L72.1916331,84.1334444 L58.3545684,70.2962256 L58.3377421,70.3140462 L51.9405684,63.9168724 L72.8092152,43.0482256 Z" id="Combined-Shape" fill="#3389C6" fill-rule="nonzero"></path>
            <polygon id="path116" fill="#14BA5A" points="68.6370728 46.0997642 127.707965 46.2426627 127.74369 31.4801752 68.6727974 31.3372766"></polygon>
            <polygon id="path124" fill="#006BB8" fill-rule="nonzero" points="125.544571 34.6755591 116.414668 34.6862355 116.405634 27.266598 125.535948 27.255511"></polygon>
            <polygon id="path128" fill="#FFFFFF" fill-rule="nonzero" points="124.247315 34.6771606 122.94234 34.6788031 122.933306 27.2591656 124.238692 27.2571125"></polygon>
            <polygon id="path132" fill="#FFFFFF" fill-rule="nonzero" points="121.685284 34.6799939 120.379898 34.6816364 120.371274 27.2624096 121.676661 27.2603564"></polygon>
            <polygon id="path136" fill="#FFFFFF" fill-rule="nonzero" points="119.038253 34.6422983 117.732866 34.6443514 117.723832 27.2653661 119.028808 27.2637236"></polygon>
            <polygon id="path140" fill="#3389C6" fill-rule="nonzero" points="83.8511643 50.5946215 74.7212611 50.6057085 74.7122273 43.186071 83.8421304 43.1749841"></polygon>
            <path d="M79.9828842,43.1797884 L79.991918,50.5994259 L78.6865315,50.6010684 L78.6774977,43.1814309 L79.9828842,43.1797884 Z M82.5448744,43.1765855 L82.5539082,50.596223 L81.2485218,50.5978655 L81.2398986,43.178228 L82.5448744,43.1765855 Z M77.3352369,43.1827449 L77.3446813,50.5617302 L76.0397055,50.5633728 L76.0298504,43.1847981 L77.3352369,43.1827449 Z" id="Combined-Shape" fill="#FFFFFF" fill-rule="nonzero"></path>
        </g>
    </g>
</svg>

<svg xmlns="http://www.w3.org/2000/svg" xmlns:xlink="http://www.w3.org/1999/xlink" width="170" height="126" xmlns:v="https://vecta.io/nano"><defs><path id="A" d="M141.747 51.815H82.676V37.052h59.071z"/><mask id="B" x="0" y="0" width="59.071" height="14.762" fill="#fff"><use xlink:href="#A"/></mask></defs><g transform="matrix(1 0 0 -1 1.998481 103.668359)" fill="none" fill-rule="evenodd"><g fill-rule="nonzero"><path fill="#b5cee0" d="M148.552 66.577h-36.341V51.815h36.341z"/><path fill="#809ebe" d="M112.211 66.577h-51V51.815h51z"/><path fill="#fff" d="M158.993 51.815h-17.246V37.052h17.246z"/></g><use stroke="#14ba5a" mask="url(#B)" stroke-width="2.667" stroke-dasharray="3,2" xlink:href="#A"/><g fill-rule="nonzero"><path fill="#fff" d="M82.676 51.815H46.377l-4.284-3.804L53.14 37.086l29.535-.034z"/><path fill="#809ebe" d="M148.552 37.086h-36.341V22.324h36.341z"/><path fill="#b5cee0" d="M112.211 37.086H53.14l14.761-14.762h44.31z"/><path fill="#fff" d="M127.762 22.324h-59.86l14.8-14.762h45.06z"/><path d="M87.975.461l-.009.008h.009l-4.541 4.733v34.022h-.062l.102.102-4.638 4.636 10.428 10.444 27.074-27.072 6.397 6.397-32.711 32.711-.046-.046-15.5 15.477-24.39-24.443L.622 7.964 8.19.489 8.183.483l.013-.001.005-.003.003.003L18.311.469l-4.955 5.164 44.27 44.27 13.591-13.57.093.092 1.472-1.472V.465L87.975.461z" fill="#006bb8"/><path d="M90.476 86.159l-2.697-2.704 1.599-1.595-3.642-3.651 10.157-10.132 4.319 4.329 1.502-1.496 1.171 4.176 3.945 3.956-10.157 10.132-4.599-4.61-1.599 1.596zm-2.578-17.717l3.806 3.815-5.967 5.952-3.806-3.815 5.967-5.952z" fill="#3389c6"/><g fill="#f2f7fb"><path d="M105.76 77.912L95.603 88.044l4.343 4.354 10.157-10.132z"/><path d="M105.698 77.882l5.909 2.888-3.036 3.027zM95.602 88.043l5.909 2.888-3.036 3.027z"/></g><path d="M72.809 43.048l6.397 6.397-14.455 14.454 13.837 13.837-6.397 6.397-13.837-13.837-.017.018-6.397-6.397 20.869-20.869z" fill="#3389c6"/></g><path fill="#14ba5a" d="M68.637 46.1l59.071.143.036-14.762-59.071-.143z"/><g fill-rule="nonzero"><path fill="#006bb8" d="M125.545 34.676l-9.13.011-.009-7.42 9.13-.011z"/><path d="M124.247 34.677l-1.305.002-.009-7.42 1.305-.002zm-2.562.003l-1.305.002-.009-7.419 1.305-.002zm-2.647-.038l-1.305.002-.009-7.379 1.305-.002z" fill="#fff"/><path fill="#3389c6" d="M83.851 50.595l-9.13.011-.009-7.42 9.13-.011z"/><path d="M79.983 43.18l.009 7.42-1.305.002-.009-7.42 1.305-.002zm2.562-.003l.009 7.42-1.305.002-.009-7.42 1.305-.002zm-5.21.006l.009 7.379-1.305.002-.01-7.379 1.305-.002z" fill="#fff"/></g></g></svg>
